svgs/ella.svg

<svg height="192" width="192" xmlns="http://www.w3.org/2000/svg"><path d="M48 78v36c0 26.51 21.49 48 48 48v0c26.51 0 48-21.49 48-48V78" stroke="#000" stroke-linecap="round" stroke-width="12" fill="none"/><path d="M48 120h-3.5C32.07 120 22 109.93 22 97.5 22 60.22 52.22 30 89.5 30h13c37.28 0 67.5 30.22 67.5 67.5 0 12.43-10.07 22.5-22.5 22.5H145" stroke="#000" stroke-width="12" fill="none"/><path d="m96 138 9-14H87l9 14Zm0 0v22" stroke="#000" stroke-linecap="round" stroke-linejoin="round" stroke-width="12" fill="none"/><path d="M68 96a8 8 0 1 1 16 0 8 8 0 1 1-16 0M108 96a8 8 0 1 1 16 0 8 8 0 1 1-16 0"/></svg>

<?xml version="1.0" encoding="UTF-8" standalone="no"?><svg xmlns:android="http://schemas.android.com/apk/res/android" height="192" width="192" xmlns="http://www.w3.org/2000/svg">
  <path d="M48,78V114C48,140.51 69.49,162 96,162V162C122.51,162 144,140.51 144,114V78" fill="#000000" fill-opacity="0.0" stroke="#000000" stroke-linecap="round" stroke-width="12"/>
  <path d="M48,120H44.5C32.07,120 22,109.93 22,97.5V97.5C22,60.22 52.22,30 89.5,30H102.5C139.78,30 170,60.22 170,97.5V97.5C170,109.93 159.93,120 147.5,120H145" fill="#000000" fill-opacity="0.0" stroke="#000000" stroke-width="12"/>
  <path d="M96,138L105,124H87L96,138ZM96,138V160" fill="#000000" fill-opacity="0.0" stroke="#000000" stroke-linecap="round" stroke-linejoin="round" stroke-width="12"/>
  <path d="M76,96m-8,0a8,8 0,1 1,16 0a8,8 0,1 1,-16 0" fill="#000000"/>
  <path d="M116,96m-8,0a8,8 0,1 1,16 0a8,8 0,1 1,-16 0" fill="#000000"/>
</svg>
